img/cont-1.svg

<svg width="125" height="86" viewBox="0 0 125 86" fill="none" xmlns="http://www.w3.org/2000/svg">
<rect width="125" height="86" rx="5" fill="#CCE2F5"/>
<path d="M41.808 59.976V61H33.888V49.8H41.568V50.824H35.072V54.808H40.864V55.816H35.072V59.976H41.808ZM49.5229 56.648C50.6642 56.9147 51.2349 57.6027 51.2349 58.712C51.2349 59.448 50.9629 60.0133 50.4189 60.408C49.8749 60.8027 49.0642 61 47.9869 61H44.1629V52.584H47.8749C48.8349 52.584 49.5869 52.7707 50.1309 53.144C50.6749 53.5173 50.9469 54.0507 50.9469 54.744C50.9469 55.2027 50.8189 55.5973 50.5629 55.928C50.3175 56.248 49.9709 56.488 49.5229 56.648ZM45.2669 56.328H47.7949C48.4455 56.328 48.9415 56.2053 49.2829 55.96C49.6349 55.7147 49.8109 55.3573 49.8109 54.888C49.8109 54.4187 49.6349 54.0667 49.2829 53.832C48.9415 53.5973 48.4455 53.48 47.7949 53.48H45.2669V56.328ZM47.9389 60.104C48.6642 60.104 49.2082 59.9867 49.5709 59.752C49.9335 59.5173 50.1149 59.1493 50.1149 58.648C50.1149 58.1467 49.9495 57.7787 49.6189 57.544C49.2882 57.2987 48.7655 57.176 48.0509 57.176H45.2669V60.104H47.9389ZM58.2333 52.52C59.0226 52.52 59.7373 52.7013 60.3773 53.064C61.0173 53.416 61.5186 53.9173 61.8813 54.568C62.2439 55.2187 62.4253 55.96 62.4253 56.792C62.4253 57.6347 62.2439 58.3813 61.8813 59.032C61.5186 59.6827 61.0173 60.1893 60.3773 60.552C59.7479 60.904 59.0333 61.08 58.2333 61.08C57.5506 61.08 56.9319 60.9413 56.3773 60.664C55.8333 60.376 55.3853 59.96 55.0333 59.416V64.104H53.8973V52.584H54.9853V54.248C55.3266 53.6933 55.7746 53.2667 56.3293 52.968C56.8946 52.6693 57.5293 52.52 58.2333 52.52ZM58.1533 60.072C58.7399 60.072 59.2733 59.9387 59.7533 59.672C60.2333 59.3947 60.6066 59.0053 60.8733 58.504C61.1506 58.0027 61.2893 57.432 61.2893 56.792C61.2893 56.152 61.1506 55.5867 60.8733 55.096C60.6066 54.5947 60.2333 54.2053 59.7533 53.928C59.2733 53.6507 58.7399 53.512 58.1533 53.512C57.5559 53.512 57.0173 53.6507 56.5373 53.928C56.0679 54.2053 55.6946 54.5947 55.4173 55.096C55.1506 55.5867 55.0173 56.152 55.0173 56.792C55.0173 57.432 55.1506 58.0027 55.4173 58.504C55.6946 59.0053 56.0679 59.3947 56.5373 59.672C57.0173 59.9387 57.5559 60.072 58.1533 60.072ZM68.338 61.08C67.5273 61.08 66.7967 60.8987 66.146 60.536C65.4953 60.1627 64.9833 59.6507 64.61 59C64.2367 58.3493 64.05 57.6133 64.05 56.792C64.05 55.9707 64.2367 55.2347 64.61 54.584C64.9833 53.9333 65.4953 53.4267 66.146 53.064C66.7967 52.7013 67.5273 52.52 68.338 52.52C69.1487 52.52 69.8793 52.7013 70.53 53.064C71.1807 53.4267 71.6873 53.9333 72.05 54.584C72.4233 55.2347 72.61 55.9707 72.61 56.792C72.61 57.6133 72.4233 58.3493 72.05 59C71.6873 59.6507 71.1807 60.1627 70.53 60.536C69.8793 60.8987 69.1487 61.08 68.338 61.08ZM68.338 60.072C68.9353 60.072 69.4687 59.9387 69.938 59.672C70.418 59.3947 70.7913 59.0053 71.058 58.504C71.3247 58.0027 71.458 57.432 71.458 56.792C71.458 56.152 71.3247 55.5813 71.058 55.08C70.7913 54.5787 70.418 54.1947 69.938 53.928C69.4687 53.6507 68.9353 53.512 68.338 53.512C67.7407 53.512 67.202 53.6507 66.722 53.928C66.2527 54.1947 65.8793 54.5787 65.602 55.08C65.3353 55.5813 65.202 56.152 65.202 56.792C65.202 57.432 65.3353 58.0027 65.602 58.504C65.8793 59.0053 66.2527 59.3947 66.722 59.672C67.202 59.9387 67.7407 60.072 68.338 60.072ZM82.5899 52.584V61H81.4539V53.592H76.1739V61H75.0379V52.584H82.5899ZM88.7151 52.52C89.8138 52.52 90.6565 52.7973 91.2431 53.352C91.8298 53.896 92.1231 54.7067 92.1231 55.784V61H91.0351V59.688C90.7791 60.1253 90.4005 60.4667 89.8991 60.712C89.4085 60.9573 88.8218 61.08 88.1391 61.08C87.2005 61.08 86.4538 60.856 85.8991 60.408C85.3445 59.96 85.0671 59.368 85.0671 58.632C85.0671 57.9173 85.3231 57.3413 85.8351 56.904C86.3578 56.4667 87.1845 56.248 88.3151 56.248H90.9871V55.736C90.9871 55.0107 90.7845 54.4613 90.3791 54.088C89.9738 53.704 89.3818 53.512 88.6031 53.512C88.0698 53.512 87.5578 53.6027 87.0671 53.784C86.5765 53.9547 86.1551 54.1947 85.8031 54.504L85.2911 53.656C85.7178 53.2933 86.2298 53.016 86.8271 52.824C87.4245 52.6213 88.0538 52.52 88.7151 52.52ZM88.3151 60.184C88.9551 60.184 89.5045 60.04 89.9631 59.752C90.4218 59.4533 90.7631 59.0267 90.9871 58.472V57.096H88.3471C86.9071 57.096 86.1871 57.5973 86.1871 58.6C86.1871 59.0907 86.3738 59.48 86.7471 59.768C87.1205 60.0453 87.6431 60.184 88.3151 60.184Z" fill="black"/>
<g clip-path="url(#clip0)">
<path d="M69.3734 15.041C70.5744 14.5435 71.3575 13.3715 71.3575 12.0716C71.3569 10.2967 69.9182 8.85805 68.1434 8.85742C66.8433 8.85742 65.6714 9.64053 65.1739 10.8416C64.6764 12.0426 64.9514 13.4251 65.8707 14.3443C66.7898 15.2636 68.1723 15.5385 69.3734 15.041ZM68.1434 10.143C68.4984 10.143 68.7862 10.4308 68.7862 10.7859C68.7862 11.1409 68.4984 11.4287 68.1434 11.4287C67.7888 11.4298 67.5016 11.7169 67.5005 12.0716C67.5005 12.4266 67.2128 12.7144 66.8577 12.7144C66.5027 12.7144 66.2149 12.4266 66.2149 12.0716C66.2179 11.0078 67.0796 10.1461 68.1434 10.143Z" fill="white"/>
<path d="M80.5758 22.5242L79.0522 20.2165C78.6088 19.5385 78.6344 18.6562 79.1166 18.0052L79.8239 17.043C79.9589 16.8593 79.9866 16.6177 79.8964 16.4082C79.8063 16.1988 79.612 16.0527 79.3856 16.0244L78.6729 15.9353C78.5274 15.9125 78.3787 15.9191 78.2357 15.9546L73.7038 16.9831C73.228 17.086 72.7395 17.2274 72.1609 17.4139L70.0718 18.121V24.2013C70.0896 25.1406 69.4473 25.9642 68.5319 26.1756C67.9643 26.2905 67.375 26.1449 66.9262 25.7788C66.4775 25.4128 66.2164 24.8649 66.2148 24.2857V16.4044L60.4392 15.333C60.2761 15.3028 60.1075 15.3368 59.9689 15.4279L55.5887 18.3071L54.4059 19.7792C54.2438 19.9769 54.1951 20.2442 54.2773 20.4863C54.3532 20.7292 54.5508 20.9145 54.798 20.9749C55.1281 21.0647 55.4302 21.2362 55.6766 21.4735C55.7326 21.5295 55.777 21.5959 55.8073 21.6691L56.0515 22.2349C56.2116 22.3322 56.4052 22.3578 56.5851 22.3056C56.8 22.2433 56.9662 22.0723 57.0221 21.8556L57.4208 20.6407C57.7032 19.7855 58.3267 19.0852 59.1435 18.7057L60.1657 18.2429C60.5748 18.0687 61.0448 18.1181 61.4089 18.3733C61.7647 18.6355 61.9701 19.0549 61.9591 19.4967V20.2583C61.9591 20.5007 62.0955 20.7225 62.3117 20.8319L64.0719 21.7224C64.4859 21.9199 64.7679 22.3178 64.8174 22.7737C64.8686 23.3453 64.5373 23.8822 64.0033 24.0927L60.3071 25.5005H60.2942C60.2942 25.5022 60.2936 25.5038 60.2924 25.505C60.2912 25.5062 60.2895 25.5069 60.2878 25.5069L58.4043 26.4647C57.8812 26.7248 57.2866 26.804 56.7136 26.6897L55.4473 26.4326C54.8046 26.3075 54.1385 26.4243 53.5767 26.7604L51.4875 28.0332L47.9905 30.0646C47.7145 30.2227 47.5967 30.5597 47.7142 30.8553L47.9582 31.4711C48.1602 31.9474 48.1746 32.4824 47.9985 32.9688C47.7522 33.6068 47.1868 34.0671 46.512 34.1788L45.5478 34.3459C45.377 34.3695 45.2234 34.4626 45.1235 34.603C45.0229 34.7397 44.9812 34.9111 45.0079 35.0788L45.2575 36.5956C45.3094 36.9109 45.5819 37.1422 45.9014 37.1422H47.9649C48.1703 37.1414 48.3633 37.0436 48.4855 36.8786L49.7262 35.1944C49.9684 34.8759 50.2779 34.6147 50.6326 34.4295L51.9825 33.7481C52.6491 33.4068 53.432 33.3763 54.1232 33.6645L58.7644 35.5415L58.7708 35.3808L58.4108 34.7766C58.0856 34.2445 58.2004 33.5543 58.6802 33.1561C59.1501 32.7844 59.8077 32.7635 60.3003 33.1044L60.4872 33.2273C61.3313 33.8015 62.0742 34.5119 62.6856 35.3293L63.2385 36.0879C63.391 36.2937 63.651 36.3896 63.9006 36.3322L67.9762 35.4129C68.2263 35.355 68.4196 35.1566 68.4712 34.9051L68.5933 34.288C68.86 32.9521 70.0339 31.991 71.3961 31.9931C71.9977 31.9955 72.5837 32.1842 73.0738 32.5331L76.3845 34.9244C76.5912 35.0769 76.8525 35.1353 77.1044 35.0851C77.1173 35.0851 77.1302 35.0787 77.143 35.0787C77.4462 35.0067 77.6927 34.7868 77.7987 34.4937C77.9087 34.1956 77.8551 33.8617 77.6573 33.613L77.066 32.8673C76.6535 32.3334 76.7147 31.5733 77.2074 31.1124L80.1323 28.5282C80.686 28.0405 81.0023 27.3376 81.0001 26.5997V23.9384C81.0009 23.4355 80.8533 22.9436 80.5758 22.5242Z" fill="white"/>
<path d="M67.5005 24.2853C67.5005 24.6402 67.7883 24.9281 68.1433 24.9281C68.4984 24.9281 68.7862 24.6403 68.7862 24.2853V16.5713H67.5005V24.2853Z" fill="white"/>
<path d="M46.8602 25.2987L46.4388 25.9713C46.3496 26.1137 46.3686 26.2984 46.485 26.4196L46.486 26.4206C46.7211 26.6655 47.106 26.6854 47.3651 26.4661L49.5849 24.5871L49.9176 23.2467C49.99 22.9554 49.8511 22.6527 49.583 22.5177L49.212 22.3307C49.0861 22.2691 48.9843 22.1674 48.9227 22.0415L48.2799 20.7494C48.1903 20.5695 48.1902 20.3582 48.2794 20.1782L48.3564 20.0227C48.5133 19.7063 48.3853 19.3225 48.07 19.1634L47.9254 19.0905C47.7734 19.0138 47.6581 18.8799 47.6048 18.7181L47.2552 17.6558C47.1685 17.392 46.9222 17.2139 46.6446 17.2139H46.2869V20.5822C46.2869 20.7512 46.3534 20.9133 46.4721 21.0335L46.7433 21.3086C46.8628 21.4298 46.9298 21.5931 46.9297 21.7633V22.4171C46.9297 22.512 46.9077 22.6056 46.8654 22.6906L46.3805 23.4882C46.3193 23.5889 46.2869 23.7044 46.2869 23.8221V24.2848L46.7433 24.5548C46.9361 24.753 46.9829 25.0512 46.8602 25.2987Z" fill="white"/>
</g>
<defs>
<clipPath id="clip0">
<rect width="36" height="36" fill="white" transform="translate(45 5)"/>
</clipPath>
</defs>
</svg>

<svg width="125" height="86" fill="none" xmlns="http://www.w3.org/2000/svg"><rect width="125" height="86" rx="5" fill="#CCE2F5"/><path d="M41.808 59.976V61h-7.92V49.8h7.68v1.024h-6.496v3.984h5.792v1.008h-5.792v4.16h6.736zm7.715-3.328c1.141.267 1.712.955 1.712 2.064 0 .736-.272 1.301-.816 1.696-.544.395-1.355.592-2.432.592h-3.824v-8.416h3.712c.96 0 1.712.187 2.256.56.544.373.816.907.816 1.6 0 .459-.128.853-.384 1.184-.245.32-.592.56-1.04.72zm-4.256-.32h2.528c.65 0 1.146-.123 1.488-.368.352-.245.528-.603.528-1.072 0-.47-.176-.821-.528-1.056-.342-.235-.837-.352-1.488-.352h-2.528v2.848zm2.672 3.776c.725 0 1.27-.117 1.632-.352.363-.235.544-.603.544-1.104 0-.501-.166-.87-.496-1.104-.33-.245-.853-.368-1.568-.368h-2.784v2.928h2.672zm10.294-7.584c.79 0 1.504.181 2.144.544.64.352 1.142.853 1.504 1.504.363.65.544 1.392.544 2.224 0 .843-.181 1.59-.544 2.24a3.888 3.888 0 01-1.504 1.52c-.63.352-1.344.528-2.144.528a4.092 4.092 0 01-1.856-.416 3.582 3.582 0 01-1.344-1.248v4.688h-1.136v-11.52h1.088v1.664c.342-.555.79-.981 1.344-1.28.566-.299 1.2-.448 1.904-.448zm-.08 7.552c.587 0 1.12-.133 1.6-.4.48-.277.854-.667 1.12-1.168.278-.501.416-1.072.416-1.712 0-.64-.138-1.205-.416-1.696a2.883 2.883 0 00-1.12-1.168 3.14 3.14 0 00-1.6-.416c-.597 0-1.136.139-1.616.416-.47.277-.842.667-1.12 1.168-.266.49-.4 1.056-.4 1.696 0 .64.134 1.21.4 1.712.278.501.65.89 1.12 1.168.48.267 1.019.4 1.616.4zm10.185 1.008c-.81 0-1.541-.181-2.192-.544A4.083 4.083 0 0164.61 59c-.373-.65-.56-1.387-.56-2.208 0-.821.187-1.557.56-2.208a3.968 3.968 0 011.536-1.52c.65-.363 1.381-.544 2.192-.544.81 0 1.541.181 2.192.544.65.363 1.157.87 1.52 1.52.373.65.56 1.387.56 2.208 0 .821-.187 1.557-.56 2.208a3.968 3.968 0 01-1.52 1.536c-.65.363-1.381.544-2.192.544zm0-1.008c.597 0 1.13-.133 1.6-.4.48-.277.853-.667 1.12-1.168.267-.501.4-1.072.4-1.712 0-.64-.133-1.21-.4-1.712a2.778 2.778 0 00-1.12-1.152 3.085 3.085 0 00-1.6-.416c-.597 0-1.136.139-1.616.416-.47.267-.843.65-1.12 1.152-.267.501-.4 1.072-.4 1.712 0 .64.133 1.21.4 1.712.277.501.65.89 1.12 1.168.48.267 1.019.4 1.616.4zm14.252-7.488V61h-1.136v-7.408h-5.28V61h-1.136v-8.416h7.552zm6.125-.064c1.099 0 1.941.277 2.528.832.587.544.88 1.355.88 2.432V61h-1.088v-1.312c-.256.437-.635.779-1.136 1.024-.49.245-1.077.368-1.76.368-.938 0-1.685-.224-2.24-.672-.555-.448-.832-1.04-.832-1.776 0-.715.256-1.29.768-1.728.523-.437 1.35-.656 2.48-.656h2.672v-.512c0-.725-.203-1.275-.608-1.648-.405-.384-.997-.576-1.776-.576-.533 0-1.045.09-1.536.272-.49.17-.912.41-1.264.72l-.512-.848c.427-.363.939-.64 1.536-.832a5.836 5.836 0 011.888-.304zm-.4 7.664c.64 0 1.19-.144 1.648-.432.459-.299.8-.725 1.024-1.28v-1.376h-2.64c-1.44 0-2.16.501-2.16 1.504 0 .49.187.88.56 1.168.374.277.896.416 1.568.416z" fill="#000"/><g clip-path="url(#clip0)" fill="#fff"><path d="M69.373 15.041a3.214 3.214 0 10-2.46-5.939 3.214 3.214 0 002.46 5.939zm-1.23-4.898a.643.643 0 010 1.286.645.645 0 00-.642.643.643.643 0 11-1.286 0 1.934 1.934 0 011.928-1.929zm12.433 12.381l-1.524-2.308a1.935 1.935 0 01.065-2.21l.707-.963a.643.643 0 00-.438-1.019l-.713-.089a1.105 1.105 0 00-.437.02l-4.532 1.028c-.476.103-.964.244-1.543.43l-2.09.708v6.08a1.988 1.988 0 01-1.54 1.975 1.933 1.933 0 01-2.316-1.89v-7.882l-5.776-1.071a.643.643 0 00-.47.095l-4.38 2.88-1.183 1.471a.74.74 0 00-.129.707.726.726 0 00.521.489c.33.09.632.261.879.498a.6.6 0 01.13.196l.244.566c.16.097.354.123.534.07a.633.633 0 00.437-.45l.399-1.214a3.261 3.261 0 011.723-1.935l1.022-.463a1.288 1.288 0 011.243.13c.356.262.561.682.55 1.124v.761c0 .243.136.465.353.574l1.76.89c.414.198.696.596.745 1.052a1.294 1.294 0 01-.814 1.319L60.307 25.5h-.013a.006.006 0 01-.006.007l-1.884.958a2.639 2.639 0 01-1.69.225l-1.267-.257a2.655 2.655 0 00-1.87.327l-2.09 1.273-3.497 2.032a.64.64 0 00-.276.79l.244.616a2.05 2.05 0 01.04 1.498 1.932 1.932 0 01-1.486 1.21l-.964.167a.626.626 0 00-.425.257.635.635 0 00-.115.476l.25 1.517a.653.653 0 00.643.546h2.064a.651.651 0 00.52-.263l1.241-1.685a2.72 2.72 0 01.907-.765l1.35-.68a2.547 2.547 0 012.14-.085l4.641 1.877.007-.16-.36-.604a1.255 1.255 0 01.27-1.62 1.362 1.362 0 011.62-.053l.186.123a9.225 9.225 0 012.199 2.102l.553.759a.644.644 0 00.662.244l4.075-.92a.657.657 0 00.495-.507l.122-.617a2.854 2.854 0 012.803-2.295 2.913 2.913 0 011.678.54l3.31 2.391a.912.912 0 00.72.161c.013 0 .026-.006.039-.006a.924.924 0 00.514-1.466l-.591-.746a1.308 1.308 0 01.141-1.755l2.925-2.584A2.56 2.56 0 0081 26.6v-2.662c0-.502-.147-.994-.424-1.414z"/><path d="M67.5 24.285a.643.643 0 001.286 0v-7.714h-1.285v7.714zm-20.64 1.014l-.421.672a.366.366 0 00.046.449h.001c.235.245.62.265.88.046l2.219-1.879.333-1.34a.643.643 0 00-.335-.73l-.371-.186a.63.63 0 01-.29-.29l-.642-1.292a.642.642 0 010-.57l.076-.156a.643.643 0 00-.286-.86l-.145-.073a.642.642 0 01-.32-.372l-.35-1.062a.643.643 0 00-.61-.442h-.358v3.368c0 .17.066.331.185.451l.271.276c.12.12.187.284.187.454v.654a.614.614 0 01-.065.274l-.485.797a.643.643 0 00-.093.334v.463l.456.27c.193.198.24.496.117.744z"/></g><defs><clipPath id="clip0"><path fill="#fff" transform="translate(45 5)" d="M0 0h36v36H0z"/></clipPath></defs></svg>
